X: 5
T: Patsy Touhey's
R: reel
M: 4/4
L: 1/8
K: Edor
BE ~E2 BFAF|D2 F/E/D ADFA|BE ~E2 BAFB|ABde fded||BE ~E2 BFAF|D2 F/E/D ADFA|BE ~E2 BAFB | ABde feed:||e2 ge bege|defg agfg|e2 ge bege|defa geed|e2 ge Bege|defg a2 ga|b/a/g a/g/f gfed|B/c/d eg feed:||


Tune 1087	Setting 14325

